dist/img/letter.svg

<svg width="27" height="20" viewBox="0 0 27 20" fill="none" xmlns="http://www.w3.org/2000/svg">
<path d="M24.6224 2.85126C24.5727 2.78105 24.5103 2.72185 24.4389 2.67703C24.3675 2.63222 24.2884 2.60268 24.2061 2.59009C24.1238 2.5775 24.04 2.58211 23.9594 2.60367C23.8788 2.62522 23.8031 2.66329 23.7364 2.7157L13.5292 10.7424C13.4927 10.7712 13.4483 10.7868 13.4026 10.7868C13.357 10.7868 13.3126 10.7712 13.2761 10.7424L3.26918 2.68015C3.20312 2.62703 3.12777 2.58815 3.04744 2.56572C2.96711 2.54328 2.88337 2.53774 2.801 2.54939C2.71864 2.56105 2.63926 2.58969 2.5674 2.63367C2.49554 2.67764 2.43261 2.7361 2.38219 2.8057C2.33177 2.8753 2.29487 2.95468 2.27357 3.03931C2.25228 3.12394 2.24701 3.21216 2.25808 3.29893C2.26914 3.3857 2.29633 3.46932 2.33807 3.54503C2.37981 3.62073 2.4353 3.68703 2.50137 3.74015L10.3693 10.0801L2.58785 16.2579C2.52082 16.3106 2.46429 16.3767 2.42149 16.4524C2.37869 16.5281 2.35046 16.6119 2.33841 16.6991C2.32637 16.7862 2.33074 16.8751 2.35128 16.9605C2.37182 17.0459 2.40813 17.1262 2.45813 17.1968C2.50813 17.2674 2.57084 17.327 2.64269 17.3721C2.71454 17.4172 2.79411 17.4469 2.87687 17.4596C2.95962 17.4723 3.04394 17.4677 3.12501 17.446C3.20608 17.4244 3.2823 17.3862 3.34934 17.3335L11.4135 10.9201L12.5061 11.809C12.7609 12.0145 13.0723 12.1269 13.3931 12.1293C13.714 12.1317 14.0268 12.024 14.2843 11.8224L15.4318 10.9201L23.5909 17.3335C23.6575 17.3859 23.7333 17.4239 23.8139 17.4454C23.8944 17.467 23.9783 17.4716 24.0605 17.459C24.1428 17.4464 24.2219 17.4169 24.2933 17.3721C24.3648 17.3273 24.4271 17.2681 24.4768 17.1979C24.5266 17.1277 24.5627 17.0479 24.5831 16.963C24.6036 16.8782 24.6079 16.7899 24.596 16.7032C24.584 16.6165 24.556 16.5332 24.5135 16.4579C24.471 16.3827 24.4148 16.317 24.3482 16.2646L16.4886 10.0779L24.4937 3.77792C24.6265 3.6723 24.7144 3.51583 24.7385 3.3424C24.7626 3.16897 24.7209 2.99252 24.6224 2.85126Z" fill="#D1327F"/>
<path d="M23.8359 0H3.16406C2.3249 0 1.52011 0.351189 0.926732 0.976311C0.333356 1.60143 0 2.44928 0 3.33333L0 16.6667C0 17.5507 0.333356 18.3986 0.926732 19.0237C1.52011 19.6488 2.3249 20 3.16406 20H23.8359C24.6751 20 25.4799 19.6488 26.0733 19.0237C26.6666 18.3986 27 17.5507 27 16.6667V3.33333C27 2.44928 26.6666 1.60143 26.0733 0.976311C25.4799 0.351189 24.6751 0 23.8359 0ZM25.7344 16.6667C25.7344 17.1971 25.5344 17.7058 25.1783 18.0809C24.8223 18.456 24.3394 18.6667 23.8359 18.6667H3.16406C2.66057 18.6667 2.17769 18.456 1.82166 18.0809C1.46564 17.7058 1.26562 17.1971 1.26562 16.6667V3.33333C1.26562 2.8029 1.46564 2.29419 1.82166 1.91912C2.17769 1.54405 2.66057 1.33333 3.16406 1.33333H23.8359C24.3394 1.33333 24.8223 1.54405 25.1783 1.91912C25.5344 2.29419 25.7344 2.8029 25.7344 3.33333V16.6667Z" fill="#D1327F"/>
</svg>

<svg width="27" height="20" fill="none" xmlns="http://www.w3.org/2000/svg"><path d="M24.622 2.851a.646.646 0 0 0-.183-.174.612.612 0 0 0-.48-.073.62.62 0 0 0-.223.112L13.53 10.742a.204.204 0 0 1-.253 0L3.27 2.68a.62.62 0 0 0-.468-.13.612.612 0 0 0-.234.084.645.645 0 0 0-.185.172.682.682 0 0 0-.124.493.69.69 0 0 0 .243.441l7.868 6.34-7.781 6.178a.695.695 0 0 0 .055 1.114.616.616 0 0 0 .482.074.622.622 0 0 0 .224-.113l8.065-6.413 1.092.889a1.42 1.42 0 0 0 1.778.013l1.148-.902 8.159 6.414a.619.619 0 0 0 .47.125.612.612 0 0 0 .232-.087.68.68 0 0 0 .303-.669.692.692 0 0 0-.082-.245.657.657 0 0 0-.166-.193l-7.86-6.187 8.006-6.3a.694.694 0 0 0 .129-.927Z" fill="#D1327F"/><path d="M23.836 0H3.164C2.324 0 1.52.351.927.976A3.426 3.426 0 0 0 0 3.333v13.334c0 .884.333 1.732.927 2.357A3.085 3.085 0 0 0 3.164 20h20.672c.84 0 1.644-.351 2.237-.976A3.426 3.426 0 0 0 27 16.667V3.333c0-.884-.333-1.732-.927-2.357A3.085 3.085 0 0 0 23.836 0Zm1.898 16.667c0 .53-.2 1.039-.556 1.414a1.85 1.85 0 0 1-1.342.586H3.164a1.85 1.85 0 0 1-1.342-.586 2.056 2.056 0 0 1-.556-1.414V3.333c0-.53.2-1.039.556-1.414a1.85 1.85 0 0 1 1.342-.586h20.672c.503 0 .986.211 1.342.586.356.375.556.884.556 1.414v13.334Z" fill="#D1327F"/></svg>
